src/dx_intl/ratings/red.svg

<svg xmlns="http://www.w3.org/2000/svg" width="144" height="36">
    <defs>
        <filter id="a" height="120%">
            <feDropShadow dx="0" dy="2" flood-color="#A40808" flood-opacity="1" stdDeviation="0"/>
        </filter>
        <filter id="c" height="150%">
            <feDropShadow dx="0" dy="1" flood-color="#C3D2D7" flood-opacity="1" stdDeviation="0"/>
        </filter>
        <pattern id="b" x="0" y="6" width="76" height="20" patternUnits="userSpaceOnUse">
            <rect x="0" y="0" width="76" height="10" fill="#333"/>
            <rect x="0" y="10" width="76" height="10" fill="#565656"/>
            <line x1="0" y1="9" x2="76" y2="9" stroke="#4C4C4C" stroke-width="1" stroke-dasharray="3"/>
            <line x1="0" y1="10" x2="76" y2="10" stroke="#5A5A5A" stroke-width="1" stroke-dasharray="3"/>
        </pattern>
    </defs>
    <rect x="1" y="1" width="140" height="30" stroke-width="1" stroke="#9A0202" fill="#FF3C3C" rx="3" filter="url(#a)"/>
    <rect x="61" y="6" width="76" height="20" stroke-width="1" stroke="#000" fill="url(#b)" rx="3"/>
    <line x1="75" y1="6" x2="75" y2="26" stroke="#333" stroke-width="1"/>
    <line x1="91" y1="6" x2="91" y2="26" stroke="#333" stroke-width="1"/>
    <line x1="107" y1="6" x2="107" y2="26" stroke="#333" stroke-width="1"/>
    <line x1="123" y1="6" x2="123" y2="26" stroke="#333" stroke-width="1"/>
    <g stroke="#fff" stroke-width="3" paint-order="stroke" transform="translate(7 6)" stroke-linecap="round" fill-rule="evenodd" filter="url(#c)">
        <path fill="#ff3636" d="M3.42 2.61v-.02q-1.74.06-3.42.06V.95q4.09 0 8.35-.2l.05 1.7a11.607 11.607 0 00-1.211.125q-1.239.2-2.006.668a3.303 3.303 0 00-.098.062 2.897 2.897 0 00-.612.528A2.037 2.037 0 003.97 5.2a2.295 2.295 0 00.078.616 1.671 1.671 0 00.502.814 1.987 1.987 0 00.942.464 2.842 2.842 0 00.578.056 4.24 4.24 0 00.314-.013q.362-.027.844-.111a13.522 13.522 0 00.032-.006l.21 1.73q-.75.15-1.5.15a5.826 5.826 0 01-1.228-.122q-.82-.177-1.441-.61a3.526 3.526 0 01-.276-.213 3.099 3.099 0 01-1.088-2.163A4.352 4.352 0 011.92 5.4a2.98 2.98 0 01.208-1.078 3.775 3.775 0 01.197-.427Q2.73 3.14 3.42 2.61zm5.85 2.14l-1.05.5q-.45-.87-.87-1.62L8.4 3.1q.36.65.87 1.65zm-1.62.32l-1.03.49q-.39-.79-.85-1.59l1.03-.52q.46.85.85 1.62z"/>
        <path fill="#ff8d25" d="M11.67 4.25h.01a7.182 7.182 0 01.995-.501q.567-.229 1.098-.308a3.731 3.731 0 01.547-.041 6.531 6.531 0 01.809.047q.86.107 1.361.465a1.764 1.764 0 01.12.093 1.88 1.88 0 01.564.866q.103.312.133.694a4.212 4.212 0 01.013.335 2.501 2.501 0 01-.26 1.15q-.25.492-.74.866a3.318 3.318 0 01-.145.104q-1.145.78-3.255.78-1.27 0-2.55-.15l.15-1.6q1.32.15 2.4.15 1.05 0 1.65-.365a1.58 1.58 0 00.303-.235.964.964 0 00.297-.7.99.99 0 00-.076-.404Q14.874 5 14.02 5a2.44 2.44 0 00-.556.074q-.58.138-1.394.531a16.328 16.328 0 00-.85.445l-1.7-.35q.28-1.63.5-3.1l1.85.15q-.06.52-.2 1.5zm-.8-2.15l.2-1.6q2.53.3 5.05.3v1.6q-2.68 0-5.25-.3z"/>
        <path fill="#ecbf0a" d="M19.25 4.66l-.32-1.54q2.53-.56 3.76-.56 3.12 0 3.12 2.6a3.491 3.491 0 01-.152 1.061 2.669 2.669 0 01-1.138 1.464q-1.164.754-3.542.827a17.102 17.102 0 01-.528.008l-.12-1.54q1.577 0 2.445-.26a2.708 2.708 0 00.44-.17 1.806 1.806 0 00.451-.313q.404-.392.404-.997a1.47 1.47 0 00-.032-.316q-.043-.197-.146-.342a.789.789 0 00-.182-.182 1.085 1.085 0 00-.286-.143q-.343-.117-.894-.117-.927 0-3.123.485a52.194 52.194 0 00-.157.035z"/>
        <path fill="#51c816" d="M32.97 0l1.1 1.5q-1.55 1.08-3.24 2.12-.6.37-.78.515a.896.896 0 00-.074.067q-.075.075-.097.143a.18.18 0 00-.009.055.221.221 0 00.022.093q.037.081.138.172.16.145.74.525 1.86 1.25 3.6 2.61l-1.2 1.4a78.529 78.529 0 00-1.175-.873Q30.944 7.56 29.65 6.66a47.074 47.074 0 01-.452-.317q-.62-.442-.898-.678a3.466 3.466 0 01-.203-.186q-.188-.189-.28-.353a.925.925 0 01-.017-.031 1.027 1.027 0 01-.079-.217q-.028-.111-.041-.244a2.484 2.484 0 01-.01-.234 2.207 2.207 0 01.031-.381q.036-.204.114-.366a1.02 1.02 0 01.17-.253q.26-.28 1.209-.901a34.129 34.129 0 01.436-.279q1.843-1.181 3.061-2.025A50.871 50.871 0 0032.97 0z"/>
        <path fill="#6791ef" d="M40.63 6.51l-.02-.02a3.012 3.012 0 01-.639.178 2.563 2.563 0 01-.401.032 2.845 2.845 0 01-.706-.083 2.059 2.059 0 01-.884-.467 1.816 1.816 0 01-.603-1.257 2.496 2.496 0 01-.007-.193 2.16 2.16 0 01.098-.667 1.749 1.749 0 01.522-.788 2.092 2.092 0 01.864-.448q.369-.097.816-.097.203 0 .47.058a4.006 4.006 0 01.21.052l.02-.01v-.4h-4.4V.9h4.4V0h1.8v.9h2.6v1.5h-2.6v1.8a2.81 2.81 0 01.348 1.298 3.328 3.328 0 01.002.102q0 1.56-.95 2.335-.95.775-3.2.965l-.3-1.6a33.555 33.555 0 00.591-.053q.971-.098 1.334-.207.465-.14.605-.46a.053.053 0 00.006-.007q.007-.011.014-.028.01-.025.01-.035zm-1.315-2.24a.543.543 0 00-.194.394.669.669 0 00-.001.036.564.564 0 00.055.251.568.568 0 00.14.179.676.676 0 00.322.153.958.958 0 00.183.017.923.923 0 00.225-.026.666.666 0 00.28-.144.543.543 0 00.194-.394.669.669 0 00.001-.036.564.564 0 00-.055-.251.568.568 0 00-.14-.179.676.676 0 00-.322-.153.958.958 0 00-.183-.017.923.923 0 00-.225.026.666.666 0 00-.28.144z"/>
    </g>
    <g stroke="#fff" stroke-width="3" paint-order="stroke" transform="matrix(1.25 0 0 1.1 8 17)" stroke-linecap="round" fill-rule="evenodd" fill="#35A" filter="url(#c)">
        <path d="M31.095 3.96V2.61h3.06V6.3q-1.179.45-2.52.45a4.799 4.799 0 01-1.097-.118 3.273 3.273 0 01-1.527-.8 3.048 3.048 0 01-.935-1.854 4.309 4.309 0 01-.041-.603 4.205 4.205 0 01.123-1.045A2.926 2.926 0 0128.984.9q.95-.9 2.651-.9a4.685 4.685 0 011.05.112 3.471 3.471 0 011.2.518l-.495 1.287a3.638 3.638 0 00-.671-.329 2.64 2.64 0 00-.904-.166 2.69 2.69 0 00-.582.059q-.386.086-.671.294a1.583 1.583 0 00-.187.16q-.488.488-.512 1.351a3.242 3.242 0 00-.001.089 2.561 2.561 0 00.063.584 1.701 1.701 0 00.468.852 1.781 1.781 0 00.919.47 2.579 2.579 0 00.503.047q.351 0 .63-.09V3.96h-1.35zM23.391.09l1.962 3.6h.018V.09h1.755v6.57h-1.755l-1.962-3.6h-.018v3.6h-1.755V.09h1.755zM2.16 4.365h-.405V6.66H0V.135Q1.17 0 2.34 0q2.7 0 2.7 2.025a1.757 1.757 0 01-.335 1.03 2.148 2.148 0 01-.016.023q-.351.486-.909.693v.018q.27.153.45.392.121.16.234.412a4.175 4.175 0 01.108.267l.648 1.8H3.375l-.558-1.71a1.659 1.659 0 00-.065-.175q-.081-.181-.187-.275a.524.524 0 00-.236-.117.768.768 0 00-.169-.018zM11.673.09h5.4v1.485h-1.782V6.66h-1.836V1.575h-1.782V.09zM9.81 5.4H7.983l-.297 1.26H5.814L7.974.09h1.89l2.16 6.57h-1.908L9.81 5.4zm10.422 1.26h-1.98V.09h1.98v6.57zM8.892 1.62l-.585 2.43h1.188L8.91 1.62h-.018zm-7.137-.225V.06l.495 3q.459 0 .725-.229a.753.753 0 00.258-.5 1.069 1.069 0 00.007-.126q0-.813-.895-.853a2.129 2.129 0 00-.095-.002 3.093 3.093 0 00-.221.008q-.104.007-.194.022a1.607 1.607 0 00-.08.015z"/>
    </g>
</svg>

<svg xmlns="http://www.w3.org/2000/svg" viewBox="0 0 144 36" width="144" height="36">
  <defs>
    <pattern id="gaugePattern" x="0" y="6" width="76" height="20" patternUnits="userSpaceOnUse">
      <rect x="0" y="0" width="76" height="10" fill='#333333' />
      <rect x="0" y="10" width="76" height="10" fill='#565656' />
      <line x1="0" y1="9" x2="76" y2="9" stroke="#4C4C4C" stroke-width="1" stroke-dasharray="3" />
      <line x1="0" y1="10" x2="76" y2="10" stroke="#5A5A5A" stroke-width="1" stroke-dasharray="3" />
    </pattern>
    <filter id="outerShadow" height="120%">
      <feDropShadow dx="0" dy="2" flood-color="#A40808" flood-opacity="1" stdDeviation="0" />       
    </filter>
    <filter id="textShadow" height="150%">
      <feDropShadow dx="0" dy="1" flood-color="#C3D2D7" flood-opacity="1" stdDeviation="0" />       
    </filter>
  </defs>
  <rect x="1" y="1" width="140" height="30" stroke-width="1" stroke="#9A0202" fill="#FF3C3C" rx="3" filter="url(#outerShadow)" />
  <rect x="61" y="6" width="76" height="20" stroke-width="1" stroke="#000000" fill="url(#gaugePattern)" rx="3" />
  <line x1="75" y1="6" x2="75" y2="26" stroke="#333333" stroke-width="1" />
  <line x1="91" y1="6" x2="91" y2="26" stroke="#333333" stroke-width="1" />
  <line x1="107" y1="6" x2="107" y2="26" stroke="#333333" stroke-width="1" />
  <line x1="123" y1="6" x2="123" y2="26" stroke="#333333" stroke-width="1" />
  <g stroke="white" stroke-width="3" paint-order="stroke" transform="translate(7,6)" id="svgGroup" stroke-linecap="round" fill-rule="evenodd" filter="url(#textShadow)">
    <path fill="#ff3636" d="M 3.42 2.61 L 3.42 2.59 Q 1.68 2.65 0 2.65 L 0 0.95 Q 4.09 0.95 8.35 0.75 L 8.4 2.45 A 11.607 11.607 0 0 0 7.189 2.575 Q 5.95 2.775 5.183 3.243 A 3.303 3.303 0 0 0 5.085 3.305 A 2.897 2.897 0 0 0 4.473 3.833 A 2.037 2.037 0 0 0 3.97 5.2 A 2.295 2.295 0 0 0 4.048 5.816 A 1.671 1.671 0 0 0 4.55 6.63 A 1.987 1.987 0 0 0 5.492 7.094 A 2.842 2.842 0 0 0 6.07 7.15 A 4.24 4.24 0 0 0 6.384 7.137 Q 6.746 7.11 7.228 7.026 A 13.522 13.522 0 0 0 7.26 7.02 L 7.47 8.75 Q 6.72 8.9 5.97 8.9 A 5.826 5.826 0 0 1 4.742 8.778 Q 3.922 8.601 3.301 8.168 A 3.526 3.526 0 0 1 3.025 7.955 A 3.099 3.099 0 0 1 1.937 5.792 A 4.352 4.352 0 0 1 1.92 5.4 A 2.98 2.98 0 0 1 2.128 4.322 A 3.775 3.775 0 0 1 2.325 3.895 Q 2.73 3.14 3.42 2.61 Z M 9.27 4.75 L 8.22 5.25 Q 7.77 4.38 7.35 3.63 L 8.4 3.1 Q 8.76 3.75 9.27 4.75 Z M 7.65 5.07 L 6.62 5.56 Q 6.23 4.77 5.77 3.97 L 6.8 3.45 Q 7.26 4.3 7.65 5.07 Z" />
    <path fill="#ff8d25" transform="translate(-1, 0)" d="M 12.67 4.25 L 12.68 4.25 A 7.182 7.182 0 0 1 13.675 3.749 Q 14.242 3.52 14.773 3.441 A 3.731 3.731 0 0 1 15.32 3.4 A 6.531 6.531 0 0 1 16.129 3.447 Q 16.989 3.554 17.49 3.912 A 1.764 1.764 0 0 1 17.61 4.005 A 1.88 1.88 0 0 1 18.174 4.871 Q 18.277 5.183 18.307 5.565 A 4.212 4.212 0 0 1 18.32 5.9 A 2.501 2.501 0 0 1 18.06 7.05 Q 17.81 7.542 17.32 7.916 A 3.318 3.318 0 0 1 17.175 8.02 Q 16.03 8.8 13.92 8.8 Q 12.65 8.8 11.37 8.65 L 11.52 7.05 Q 12.84 7.2 13.92 7.2 Q 14.97 7.2 15.57 6.835 A 1.58 1.58 0 0 0 15.873 6.6 A 0.964 0.964 0 0 0 16.17 5.9 A 0.99 0.99 0 0 0 16.094 5.496 Q 15.874 5 15.02 5 A 2.44 2.44 0 0 0 14.464 5.074 Q 13.884 5.212 13.07 5.605 A 16.328 16.328 0 0 0 12.22 6.05 L 10.52 5.7 Q 10.8 4.07 11.02 2.6 L 12.87 2.75 Q 12.81 3.27 12.67 4.25 Z M 11.87 2.1 L 12.07 0.5 Q 14.6 0.8 17.12 0.8 L 17.12 2.4 Q 14.44 2.4 11.87 2.1 Z" />
    <path fill="#ecbf0a" transform="translate(-2, 0)" d="M 21.25 4.66 L 20.93 3.12 Q 23.46 2.56 24.69 2.56 Q 27.81 2.56 27.81 5.16 A 3.491 3.491 0 0 1 27.658 6.221 A 2.669 2.669 0 0 1 26.52 7.685 Q 25.356 8.439 22.978 8.512 A 17.102 17.102 0 0 1 22.45 8.52 L 22.33 6.98 Q 23.907 6.98 24.775 6.72 A 2.708 2.708 0 0 0 25.215 6.55 A 1.806 1.806 0 0 0 25.666 6.237 Q 26.07 5.845 26.07 5.24 A 1.47 1.47 0 0 0 26.038 4.924 Q 25.995 4.727 25.892 4.582 A 0.789 0.789 0 0 0 25.71 4.4 A 1.085 1.085 0 0 0 25.424 4.257 Q 25.081 4.14 24.53 4.14 Q 23.603 4.14 21.407 4.625 A 52.194 52.194 0 0 0 21.25 4.66 Z" />
    <path fill="#51c816" transform="translate(-3, 0)" d="M 35.97 0 L 37.07 1.5 Q 35.52 2.58 33.83 3.62 Q 33.23 3.99 33.05 4.135 A 0.896 0.896 0 0 0 32.976 4.202 Q 32.901 4.277 32.879 4.345 A 0.18 0.18 0 0 0 32.87 4.4 A 0.221 0.221 0 0 0 32.892 4.493 Q 32.929 4.574 33.03 4.665 Q 33.19 4.81 33.77 5.19 Q 35.63 6.44 37.37 7.8 L 36.17 9.2 A 78.529 78.529 0 0 0 34.995 8.327 Q 33.944 7.56 32.65 6.66 A 47.074 47.074 0 0 1 32.198 6.343 Q 31.578 5.901 31.3 5.665 A 3.466 3.466 0 0 1 31.097 5.479 Q 30.909 5.29 30.817 5.126 A 0.925 0.925 0 0 1 30.8 5.095 A 1.027 1.027 0 0 1 30.721 4.878 Q 30.693 4.767 30.68 4.634 A 2.484 2.484 0 0 1 30.67 4.4 A 2.207 2.207 0 0 1 30.701 4.019 Q 30.737 3.815 30.815 3.653 A 1.02 1.02 0 0 1 30.985 3.4 Q 31.245 3.12 32.194 2.499 A 34.129 34.129 0 0 1 32.63 2.22 Q 34.473 1.039 35.691 0.195 A 50.871 50.871 0 0 0 35.97 0 Z" />
    <path fill="#6791ef" transform="translate(-4, 0)" d="M 44.63 6.51 L 44.61 6.49 A 3.012 3.012 0 0 1 43.971 6.668 A 2.563 2.563 0 0 1 43.57 6.7 A 2.845 2.845 0 0 1 42.864 6.617 A 2.059 2.059 0 0 1 41.98 6.15 A 1.816 1.816 0 0 1 41.377 4.893 A 2.496 2.496 0 0 1 41.37 4.7 A 2.16 2.16 0 0 1 41.468 4.033 A 1.749 1.749 0 0 1 41.99 3.245 A 2.092 2.092 0 0 1 42.854 2.797 Q 43.223 2.7 43.67 2.7 Q 43.873 2.7 44.14 2.758 A 4.006 4.006 0 0 1 44.35 2.81 L 44.37 2.8 L 44.37 2.4 L 39.97 2.4 L 39.97 0.9 L 44.37 0.9 L 44.37 0 L 46.17 0 L 46.17 0.9 L 48.77 0.9 L 48.77 2.4 L 46.17 2.4 L 46.17 4.2 A 2.81 2.81 0 0 1 46.518 5.498 A 3.328 3.328 0 0 1 46.52 5.6 Q 46.52 7.16 45.57 7.935 Q 44.62 8.71 42.37 8.9 L 42.07 7.3 A 33.555 33.555 0 0 0 42.661 7.247 Q 43.632 7.149 43.995 7.04 Q 44.46 6.9 44.6 6.58 A 0.053 0.053 0 0 0 44.606 6.573 Q 44.613 6.562 44.62 6.545 Q 44.63 6.52 44.63 6.51 Z M 43.315 4.27 A 0.543 0.543 0 0 0 43.121 4.664 A 0.669 0.669 0 0 0 43.12 4.7 A 0.564 0.564 0 0 0 43.175 4.951 A 0.568 0.568 0 0 0 43.315 5.13 A 0.676 0.676 0 0 0 43.637 5.283 A 0.958 0.958 0 0 0 43.82 5.3 A 0.923 0.923 0 0 0 44.045 5.274 A 0.666 0.666 0 0 0 44.325 5.13 A 0.543 0.543 0 0 0 44.519 4.736 A 0.669 0.669 0 0 0 44.52 4.7 A 0.564 0.564 0 0 0 44.465 4.449 A 0.568 0.568 0 0 0 44.325 4.27 A 0.676 0.676 0 0 0 44.003 4.117 A 0.958 0.958 0 0 0 43.82 4.1 A 0.923 0.923 0 0 0 43.595 4.126 A 0.666 0.666 0 0 0 43.315 4.27 Z"/>
  </g>
  <g stroke="white" stroke-width="3" paint-order="stroke" transform="translate(8, 17), scale(1.25, 1.1)" stroke-linecap="round" fill-rule="evenodd" fill="#3355AA" filter="url(#textShadow)">
    <path d="M 31.095 3.96 L 31.095 2.61 L 34.155 2.61 L 34.155 6.3 Q 32.976 6.75 31.635 6.75 A 4.799 4.799 0 0 1 30.538 6.632 A 3.273 3.273 0 0 1 29.011 5.832 A 3.048 3.048 0 0 1 28.076 3.978 A 4.309 4.309 0 0 1 28.035 3.375 A 4.205 4.205 0 0 1 28.158 2.33 A 2.926 2.926 0 0 1 28.984 0.9 Q 29.934 0 31.635 0 A 4.685 4.685 0 0 1 32.685 0.112 A 3.471 3.471 0 0 1 33.885 0.63 L 33.39 1.917 A 3.638 3.638 0 0 0 32.719 1.588 A 2.64 2.64 0 0 0 31.815 1.422 A 2.69 2.69 0 0 0 31.233 1.481 Q 30.847 1.567 30.562 1.775 A 1.583 1.583 0 0 0 30.375 1.935 Q 29.887 2.423 29.863 3.286 A 3.242 3.242 0 0 0 29.862 3.375 A 2.561 2.561 0 0 0 29.925 3.959 A 1.701 1.701 0 0 0 30.393 4.811 A 1.781 1.781 0 0 0 31.312 5.281 A 2.579 2.579 0 0 0 31.815 5.328 Q 32.166 5.328 32.445 5.238 L 32.445 3.96 L 31.095 3.96 Z M 23.391 0.09 L 25.353 3.69 L 25.371 3.69 L 25.371 0.09 L 27.126 0.09 L 27.126 6.66 L 25.371 6.66 L 23.409 3.06 L 23.391 3.06 L 23.391 6.66 L 21.636 6.66 L 21.636 0.09 L 23.391 0.09 Z M 2.16 4.365 L 1.755 4.365 L 1.755 6.66 L 0 6.66 L 0 0.135 Q 1.17 0 2.34 0 Q 5.04 0 5.04 2.025 A 1.757 1.757 0 0 1 4.705 3.055 A 2.148 2.148 0 0 1 4.689 3.078 Q 4.338 3.564 3.78 3.771 L 3.78 3.789 Q 4.05 3.942 4.23 4.181 Q 4.351 4.341 4.464 4.593 A 4.175 4.175 0 0 1 4.572 4.86 L 5.22 6.66 L 3.375 6.66 L 2.817 4.95 A 1.659 1.659 0 0 0 2.752 4.775 Q 2.671 4.594 2.565 4.5 A 0.524 0.524 0 0 0 2.329 4.383 A 0.768 0.768 0 0 0 2.16 4.365 Z M 11.673 0.09 L 17.073 0.09 L 17.073 1.575 L 15.291 1.575 L 15.291 6.66 L 13.455 6.66 L 13.455 1.575 L 11.673 1.575 L 11.673 0.09 Z M 9.81 5.4 L 7.983 5.4 L 7.686 6.66 L 5.814 6.66 L 7.974 0.09 L 9.864 0.09 L 12.024 6.66 L 10.116 6.66 L 9.81 5.4 Z M 20.232 6.66 L 18.252 6.66 L 18.252 0.09 L 20.232 0.09 L 20.232 6.66 Z M 8.892 1.62 L 8.307 4.05 L 9.495 4.05 L 8.91 1.62 L 8.892 1.62 Z M 1.755 1.395 L 1.755 .06 L 2.25 3.06 Q 2.709 3.06 2.975 2.831 A 0.753 0.753 0 0 0 3.233 2.331 A 1.069 1.069 0 0 0 3.24 2.205 Q 3.24 1.392 2.345 1.352 A 2.129 2.129 0 0 0 2.25 1.35 A 3.093 3.093 0 0 0 2.029 1.358 Q 1.925 1.365 1.835 1.38 A 1.607 1.607 0 0 0 1.755 1.395 Z"/>
  </g>
</svg>
